packages/radix-icons/twoTone/15/double-arrow-down.svg

<svg width="15" height="15" fill="none" xmlns="http://www.w3.org/2000/svg">
  <path
    fill-rule="evenodd"
    clip-rule="evenodd"
    d="M4.20711 1.79289C3.81658 1.40237 3.18342 1.40237 2.79289 1.79289C2.40237 2.18342 2.40237 2.81658 2.79289 3.20711L6.79289 7.20711C7.18342 7.59763 7.81658 7.59763 8.20711 7.20711L12.2071 3.20711C12.5976 2.81658 12.5976 2.18342 12.2071 1.79289C11.8166 1.40237 11.1834 1.40237 10.7929 1.79289L7.5 5.08579L4.20711 1.79289ZM4.20711 7.79289C3.81658 7.40237 3.18342 7.40237 2.79289 7.79289C2.40237 8.18342 2.40237 8.81658 2.79289 9.20711L6.79289 13.2071C7.18342 13.5976 7.81658 13.5976 8.20711 13.2071L12.2071 9.20711C12.5976 8.81658 12.5976 8.18342 12.2071 7.79289C11.8166 7.40237 11.1834 7.40237 10.7929 7.79289L7.5 11.0858L4.20711 7.79289Z"
    fill="currentColor"
    opacity=".2"
  />
  <path
    fill-rule="evenodd"
    clip-rule="evenodd"
    d="M3.85355 2.14645C3.65829 1.95118 3.34171 1.95118 3.14645 2.14645C2.95118 2.34171 2.95118 2.65829 3.14645 2.85355L7.14645 6.85355C7.34171 7.04882 7.65829 7.04882 7.85355 6.85355L11.8536 2.85355C12.0488 2.65829 12.0488 2.34171 11.8536 2.14645C11.6583 1.95118 11.3417 1.95118 11.1464 2.14645L7.5 5.79289L3.85355 2.14645ZM3.85355 8.14645C3.65829 7.95118 3.34171 7.95118 3.14645 8.14645C2.95118 8.34171 2.95118 8.65829 3.14645 8.85355L7.14645 12.8536C7.34171 13.0488 7.65829 13.0488 7.85355 12.8536L11.8536 8.85355C12.0488 8.65829 12.0488 8.34171 11.8536 8.14645C11.6583 7.95118 11.3417 7.95118 11.1464 8.14645L7.5 11.7929L3.85355 8.14645Z"
    fill="currentColor"
  />
</svg>

<svg width="15" height="15" fill="none" xmlns="http://www.w3.org/2000/svg">
  <path
    fill-rule="evenodd"
    clip-rule="evenodd"
    d="M4.207 1.793a1 1 0 00-1.414 1.414l4 4a1 1 0 001.414 0l4-4a1 1 0 00-1.414-1.414L7.5 5.086 4.207 1.793zm0 6a1 1 0 00-1.414 1.414l4 4a1 1 0 001.414 0l4-4a1 1 0 00-1.414-1.414L7.5 11.086 4.207 7.793z"
    fill="currentColor"
    opacity=".2"
  />
  <path
    fill-rule="evenodd"
    clip-rule="evenodd"
    d="M3.854 2.146a.5.5 0 10-.708.708l4 4a.5.5 0 00.708 0l4-4a.5.5 0 00-.708-.708L7.5 5.793 3.854 2.146zm0 6a.5.5 0 10-.708.708l4 4a.5.5 0 00.708 0l4-4a.5.5 0 00-.708-.708L7.5 11.793 3.854 8.146z"
    fill="currentColor"
  />
</svg>
